X: 14647
T: Gan Ainm
R: hornpipe
M: 4/4
K: Gminor
|:f2|b>fd>f B>df>e|(3A^GA c>e =g2c>B|(3Acf a>g (3fgf (3edc|B2d>B F2f2|
b>fd<f B>df>e|(3A^GA c>e =g2F>E|(3DFB (3dfb (3agf (3edc|B2D2 B2:|
|:F>E|(3DED B>F (3DED B>F|(3DED B>D D2c>B|(3AcA f>c a>fc>A|B2b>a {b}g2f2|
(3bab d>f B>df>e|(3A^GA c>e =g2F>E|(3DFB (3dfb (3agf (3edc|1 B2D2B2:|2 B2b2B2||

